pro/src/icons/full-pause.svg

<svg width="48" height="48" viewBox="0 0 48 48" fill="none" xmlns="http://www.w3.org/2000/svg">
<path id="icon" fill-rule="evenodd" clip-rule="evenodd" d="M24 44C35.0457 44 44 35.0457 44 24C44 12.9543 35.0457 4 24 4C12.9543 4 4 12.9543 4 24C4 35.0457 12.9543 44 24 44ZM18 31C18 31.5523 18.4477 32 19 32H21C21.5523 32 22 31.5523 22 31V17C22 16.4477 21.5523 16 21 16L19 16C18.4477 16 18 16.4477 18 17L18 31ZM26 31C26 31.5523 26.4477 32 27 32H29C29.5523 32 30 31.5523 30 31V17C30 16.4477 29.5523 16 29 16H27C26.4477 16 26 16.4477 26 17V31Z" fill="currentColor"/>
</svg>

<svg xmlns="http://www.w3.org/2000/svg" width="48" height="48" fill="none"><path id="icon" fill="currentColor" fill-rule="evenodd" d="M24 44c11.046 0 20-8.954 20-20S35.046 4 24 4 4 12.954 4 24s8.954 20 20 20m-6-13a1 1 0 0 0 1 1h2a1 1 0 0 0 1-1V17a1 1 0 0 0-1-1h-2a1 1 0 0 0-1 1zm8 0a1 1 0 0 0 1 1h2a1 1 0 0 0 1-1V17a1 1 0 0 0-1-1h-2a1 1 0 0 0-1 1z" clip-rule="evenodd"/></svg>
